packages/kaspersky-hexa-ui-icons/src/iconsSVGs/28x20/FlagKe.svg

<svg width="28" height="20" viewBox="0 0 28 20" fill="none" xmlns="http://www.w3.org/2000/svg">
<g clip-path="url(#clip0_5138_1162)">
<rect width="28" height="20" rx="2" fill="white"/>
<mask id="mask0_5138_1162" style="mask-type:luminance" maskUnits="userSpaceOnUse" x="0" y="0" width="28" height="20">
<rect width="28" height="20" rx="2" fill="white"/>
</mask>
<g mask="url(#mask0_5138_1162)">
<path fill-rule="evenodd" clip-rule="evenodd" d="M0 5.33333H28V0H0V5.33333Z" fill="#262626"/>
<path fill-rule="evenodd" clip-rule="evenodd" d="M0 20H28V14.6667H0V20Z" fill="#018301"/>
<path fill-rule="evenodd" clip-rule="evenodd" d="M0 14.6667H28V5.33334H0V14.6667Z" fill="white"/>
<path fill-rule="evenodd" clip-rule="evenodd" d="M0 13.3333H28V6.66666H0V13.3333Z" fill="#DC0808"/>
</g>
<g clip-path="url(#clip1_5138_1162)">
<ellipse cx="14" cy="9.99999" rx="3.33333" ry="6.66667" fill="#BC0000"/>
<mask id="mask1_5138_1162" style="mask-type:luminance" maskUnits="userSpaceOnUse" x="10" y="3" width="8" height="14">
<ellipse cx="14" cy="9.99999" rx="3.33333" ry="6.66667" fill="white"/>
</mask>
<g mask="url(#mask1_5138_1162)">
<ellipse cx="8.66665" cy="10" rx="3.33333" ry="7.33333" fill="#262626"/>
<ellipse cx="19.3333" cy="10" rx="3.33333" ry="7.33333" fill="#262626"/>
<path fill-rule="evenodd" clip-rule="evenodd" d="M14.6666 5.33333C14.6666 6.80609 14.3682 8 14 8C13.6318 8 13.3333 6.80609 13.3333 5.33333C13.3333 3.86057 13.6318 2.66666 14 2.66666C14.3682 2.66666 14.6666 3.86057 14.6666 5.33333ZM14 12C13.6318 12 13.3333 11.1046 13.3333 10C13.3333 8.89543 13.6318 8 14 8C14.3682 8 14.6666 8.89543 14.6666 10C14.6666 11.1046 14.3682 12 14 12ZM14 12C14.3682 12 14.6666 13.1939 14.6666 14.6667C14.6666 16.1394 14.3682 17.3333 14 17.3333C13.6318 17.3333 13.3333 16.1394 13.3333 14.6667C13.3333 13.1939 13.6318 12 14 12Z" fill="url(#paint0_linear_5138_1162)"/>
</g>
</g>
</g>
<defs>
<linearGradient id="paint0_linear_5138_1162" x1="13.3333" y1="2.66666" x2="13.3333" y2="17.3333" gradientUnits="userSpaceOnUse">
<stop stop-color="white"/>
<stop offset="1" stop-color="#F0F0F0"/>
</linearGradient>
<clipPath id="clip0_5138_1162">
<rect width="28" height="20" fill="white"/>
</clipPath>
<clipPath id="clip1_5138_1162">
<rect width="7" height="14" fill="white" transform="translate(10.6667 2.66666)"/>
</clipPath>
</defs>
</svg>

<svg xmlns="http://www.w3.org/2000/svg" width="28" height="20" fill="none" viewBox="0 0 28 20"><g clip-path="url(#a)"><rect width="28" height="20" fill="#fff" rx="2"/><mask id="b" width="28" height="20" x="0" y="0" maskUnits="userSpaceOnUse" style="mask-type:luminance"><rect width="28" height="20" fill="#fff" rx="2"/></mask><g fill-rule="evenodd" clip-rule="evenodd" mask="url(#b)"><path fill="#262626" d="M0 5.3333h28V0H0z"/><path fill="#018301" d="M0 20h28v-5.3333H0z"/><path fill="#fff" d="M0 14.6667h28V5.3333H0z"/><path fill="#dc0808" d="M0 13.3333h28V6.6667H0z"/></g><g clip-path="url(#c)"><ellipse cx="14" cy="10" fill="#bc0000" rx="3" ry="7"/><mask id="d" width="8" height="14" x="10" y="3" maskUnits="userSpaceOnUse" style="mask-type:luminance"><ellipse cx="14" cy="10" fill="#fff" rx="3" ry="7"/></mask><g mask="url(#d)"><ellipse cx="9" cy="10" fill="#262626" rx="3" ry="7"/><ellipse cx="19" cy="10" fill="#262626" rx="3" ry="7"/><path fill="url(#e)" fill-rule="evenodd" d="M14.6666 5.3333C14.6666 6.8061 14.3682 8 14 8s-.6667-1.194-.6667-2.6667.2985-2.6666.6667-2.6666.6666 1.1939.6666 2.6666M14 12c-.3682 0-.6667-.8954-.6667-2S13.6318 8 14 8s.6666.8954.6666 2-.2984 2-.6666 2m0 0c.3682 0 .6666 1.1939.6666 2.6667 0 1.4727-.2984 2.6666-.6666 2.6666s-.6667-1.1939-.6667-2.6666c0-1.4728.2985-2.6667.6667-2.6667" clip-rule="evenodd"/></g></g></g><defs><clipPath id="a"><path fill="#fff" d="M0 0h28v20H0z"/></clipPath><clipPath id="c"><path fill="#fff" d="M10.6667 2.6667h7v14h-7z"/></clipPath><linearGradient id="e" x1="13" x2="13" y1="3" y2="17" gradientUnits="userSpaceOnUse"><stop stop-color="#fff"/><stop offset="1" stop-color="#f0f0f0"/></linearGradient></defs></svg>
